X:1
T: High Peak
C:
R:Strathspey
Q: 128
K:F
M:4/4
L:1/16
|:C2|CA3 A3G A4C4|DB3 B3A G6F2|E3F G3A B3A G3F|EG3 D3E C4A,4|
CA3 A3G A4C4|DB3 B3A G6F2|E3F G3A B3d c3B|Ac3 G3c F8|
G3E C3E G3B AG3|F3C FA3 c8|d3f B3d c3A F3A|cd3 F3A G4B4|
G3E C3E G3B AG3|F3C FA3 c8|d3f B3d c3A F3A|Ac3 G3c F6:|
